X: 88
T:Summer Is Coming. WI.088
M:C|
Q:200
C:"a splendid reel"
S:Wm Irwin, Folio MS, c1850. AGG's Transcription
R:Reel
O:England
A:Lake District
Z:vmp.Chris Partington.2005
K:A
a2e/f/g aece|dBcA BGE2|a2e/f/g aece|dBcA B/c/B A2:|!
|:ecAc e/f/g af|ecAc d/c/B/A/ GB|c2ec d2fd|cABG A2A2|!
ecAc e/f/g af|ecAc d/c/B/A/ GB|dfdf cece|c/B/A Bc A2A2:|]
